X: 3104
T: Beara Minstrel, The
R: reel
M: 4/4
K: Dmajor
|:dcAG FD (3EFG|Adde fgec|dcAG FD (3EFG|AB=cB A2de|
dcAG FD (3EFG|ABAG Adde|~f3g eA (3Bcd|eage d3e:|
|:fd ~d2 fd (3efg|abaf gfeg|fd ~d2 efge|fede dcAg|
fd ~d2 fd (3efg|abaf gfeg|~f3d eA (3Bcd|eage d3e:|

